!!!COM: Bach, Johann Sebastian
!!!OPR: Joh. Seb. Bachs vierstimmige Choralgesänge
!!!XEN: Four-part Chorales
!!!OTL: 18. Befiehl du deine Wege
!!!SCT: BWV 270
!!!SCA: Thematisch-systematisches Verzeichnis der musikalischen Werke Johann Sebastian Bach: Bach-Werke-Verzeichnis (Schmieder)
!!!YOR: Bach Gesellschaft Edition xxxix
!!!ENC: Steven Rasmussen
!!!CDT: 1685/3//-1750/7/28/
!!!OCY: Deutschland
!!!YEC: Copyright (c) 1994, 2000 Center for Computer Assisted Research in the Humanities
!!!YEM: Rights to all derivative editions reserved
!!!YEN: United States of America
**kern	**silbe	**kern	**kern	**kern	**silbe
*I:[SOPRANO]	*I:[SOPRANO]	*I:[ALTO]	*I:[TENORE]	*I:[BASSO]	*I:[BASSO]
*>[A,A,B]	*	*>[A,A,B]	*>[A,A,B]	*>[A,A,B]	*
*>A	*	*>A	*>A	*>A	*
*clefG2	*	*clefG2	*clefGv2	*clefF4	*
*k[f#c#]	*	*k[f#c#]	*k[f#c#]	*k[f#c#]	*
*b:	*	*b:	*b:	*b:	*
*M4/4	*	*M4/4	*M4/4	*M4/4	*
4f#	Be-der	4d	4B	8BL	.
.	.	.	.	8AJ	.
=1	=1	=1	=1	=1	=1
4b	-fiehlal-	8dL	8BL	4G	.
.	.	8eJ	8c#J	.	.
4a	du-ler-	4f#	4d	4F#	.
4g	dei--treu-	8BL	8dL	4E	.
.	.	8c#J	8c#J	.	.
4f#	-ne-sten	4d	8c#L	4D	.
.	.	.	8BJ	.	.
=2	=2	=2	=2	=2	=2
2e	We-Pfle-	4d	8BL	2G	.
.	.	.	8A#J	.	.
.	.	8c#L	4B	.	.
.	.	8BJ	.	.	.
4f#;	-ge,-ge	4c#;	4A#;	4F#;	.
4cc#	unddes,	4f#	4A#	4F#	.
=3	=3	=3	=3	=3	=3
4dd	wasder	4f#	4B	8BBL	.
.	.	.	.	8C#J	.
4dd	deinden	4f#	4B	8DL	.
.	.	.	.	8EJ	.
8cc#L	Her-Him-	4.f#	4B	4F#	.
8bJ	.	.	.	.	.
4cc#	-ze-mel	.	4A#	4F#	.
.	.	8e	.	.	.
=4	=4	=4	=4	=4	=4
2.b;	krÃ¤nkt,lenkt.	2.d;	2.F#;	2.BB;	.
=:|!	=:|!	=:|!	=:|!	=:|!	=:|!
*>B	*	*>B	*>B	*>B	*
4dd	Der	4f#	8BL	4B	.
.	.	.	8AJ	.	.
=5	=5	=5	=5	=5	=5
8cc#L	Wol-	4e	4G	4E	.
8bJ	.	.	.	.	.
4a	-ken,	8eL	4A	4F#	.
.	.	8dJ	.	.	.
4b	Luft	4d	8GL	4G	.
.	.	.	8BJ	.	.
4cc#	und	4g	4e	8F#L	.
.	.	.	.	8EJ	.
=6	=6	=6	=6	=6	=6
2dd	Win-	4a	8dL	4F#	.
.	.	.	8cnJ	.	.
.	.	4g	4B	4G	.
4dd;	-den	4f#;	4A;	4D;	.
4a	gibt	4f#	8dL	4D	.
.	.	.	8cJ	.	.
=7	=7	=7	=7	=7	=7
4b	We-	8f#L	4B	4G	.
.	.	8eJ	.	.	.
4a	-ge,	8eL	8cnL	4F#	.
.	.	8d#J	8BJ	.	.
8gL	Lauf	4e	4B	8EL	.
8f#J	.	.	.	8GJ	.
4g	und	4e	4B	8F#L	.
.	.	.	.	8EJ	.
=8	=8	=8	=8	=8	=8
2.f#;	Bahn,	2.d#;	2.B;	2.B;	.
4dd	der	4e	4B	4G#	.
=9	=9	=9	=9	=9	=9
8cc#L	wird	4e	4.A	8AL	.
8ddJ	.	.	.	8BJ	.
4ee	auch	4e	.	4c#	.
.	.	.	8G#	.	.
4dd	We-	(8f#	8AL	8F#L	.
.	.	4e)	8BJ	8G#J	.
4cc#	-ge	.	4c#	4A	.
.	.	8g#	.	.	.
=10	=10	=10	=10	=10	=10
2b	fin-	(4f#	8dL	(4D	.
.	.	.	8BJ	.	.
.	.	4e)	4G#	4E)	.
4cc#;	-den,	4e;	4A;	4AA;	.
4f#	die	4d	4A	8DL	.
.	.	.	.	8C#J	.
=11	=11	=11	=11	=11	=11
4g	dein	4d	4B	8BBL	.
.	.	.	.	8C#J	.
4f#	Fuss	4d	4A	[4D	Fuss
4e	ge-	4e	4A	8DL]	.
.	.	.	.	8C#	.
4a	-hen	4e	4c#	8BB	.
.	.	.	.	8C#J	.
=12	=12	=12	=12	=12	=12
2.f#;	kann.	4e	8c#L	8DL	ge-
.	.	.	8A#	8C#J	.
.	.	4d	8B	4BB	-hen
.	.	.	8G#J	.	.
.	.	4c#;	4A#;	4F#;	kann.
==|!	==|!	==|!	==|!	==|!	==|!
*-	*-	*-	*-	*-	*-
!!!RWG: Key is interpreted using the Humdrum key tool.
!!!END: 1994/05/09
!!!EMD: Converted from MuseData to Humdrum Dec 19, 2000, by Andreas Kornstaedt using muse2kern.
!!!EED: Craig Stuart Sapp
!!!EEV: 2024/03/31
!!!ONB: Some non-unicode characters
